X: 4
T: The Lilies In The Field
R: reel
M: 4/4
L: 1/8
K: Dmaj
Addc A3B | c3d eddc | Addc A2B/c/d | cAGE EDD2 |Addc ~A3B | cAB/c/d eddc | Addc A2B/c/d | cAGE EDD2 || d2fd Adfd |cdef g2fe | d2fd Adfd | eaag edd2 | d2fd Adfd |B/c/d ef g2fg|afge d2B/c/d|eaag eddc|


Tune 1750	Setting 15192

